2/svg/1f1f5-1f1e6.svg

<?xml version="1.0" encoding="UTF-8" standalone="no"?><svg xmlns:dc="http://purl.org/dc/elements/1.1/" xmlns:cc="http://creativecommons.org/ns#" xmlns:rdf="http://www.w3.org/1999/02/22-rdf-syntax-ns#" xmlns:svg="http://www.w3.org/2000/svg" xmlns="http://www.w3.org/2000/svg" viewBox="0 0 45 45" style="enable-background:new 0 0 45 45;" xml:space="preserve" version="1.1" id="svg2"><metadata id="metadata8"><rdf:RDF><cc:Work rdf:about=""><dc:format>image/svg+xml</dc:format><dc:type rdf:resource="http://purl.org/dc/dcmitype/StillImage"/></cc:Work></rdf:RDF></metadata><defs id="defs6"><clipPath id="clipPath16" clipPathUnits="userSpaceOnUse"><path id="path18" d="M 4,31 C 1.791,31 0,29.209 0,27 L 0,27 0,9 C 0,6.791 1.791,5 4,5 l 0,0 28,0 c 2.209,0 4,1.791 4,4 l 0,0 0,18 c 0,2.209 -1.791,4 -4,4 l 0,0 -28,0 z"/></clipPath></defs><g transform="matrix(1.25,0,0,-1.25,0,45)" id="g10"><g id="g12"><g clip-path="url(#clipPath16)" id="g14"><path id="path20" style="fill:#eeeeee;fill-opacity:1;fill-rule:nonzero;stroke:none" d="M 18,31 0,31 0,18 18,18 18,31 Z"/><path id="path22" style="fill:#eeeeee;fill-opacity:1;fill-rule:nonzero;stroke:none" d="M 18,5 36,5 36,18 18,18 18,5 Z"/><g transform="translate(9.6735,25.427)" id="g24"><path id="path26" style="fill:#005293;fill-opacity:1;fill-rule:nonzero;stroke:none" d="M 0,0 -0.674,2.073 -1.347,0 -3.527,0 -1.763,-1.281 -2.437,-3.354 -0.674,-2.073 1.09,-3.354 0.416,-1.281 2.18,0 0,0 Z"/></g><path id="path28" style="fill:#005293;fill-opacity:1;fill-rule:nonzero;stroke:none" d="M 0,5 18,5 18,18 0,18 0,5 Z"/><path id="path30" style="fill:#d21034;fill-opacity:1;fill-rule:nonzero;stroke:none" d="m 18,18 18,0 0,13 -18,0 0,-13 z"/><g transform="translate(25.9102,11.1459)" id="g32"><path id="path34" style="fill:#d21034;fill-opacity:1;fill-rule:nonzero;stroke:none" d="M 0,0 -0.674,-2.073 1.09,-0.792 2.853,-2.073 2.18,0 3.943,1.281 1.763,1.281 1.09,3.354 0.416,1.281 -1.763,1.281 0,0 Z"/></g></g></g></g></svg>

<svg xmlns="http://www.w3.org/2000/svg" viewBox="0 0 45 45" enable-background="new 0 0 45 45"><defs><clipPath id="a"><path d="M4 31c-2.2 0-4-1.8-4-4V9c0-2.2 1.8-4 4-4h28c2.2 0 4 1.8 4 4v18c0 2.2-1.8 4-4 4H4z"/></clipPath></defs><g><g><g clip-path="url(#a)" transform="matrix(1.25 0 0 -1.25 0 45)"><path fill="#eee" d="M18 31H0V18h18v13z"/><path fill="#eee" d="M18 5h18v13H18V5z"/><g><path fill="#005293" d="M9.67 25.43L9 27.5l-.67-2.07H6.15l1.76-1.28-.66-2.08L9 23.35l1.76-1.28-.67 2.08 1.75 1.28H9.67z"/></g><path fill="#005293" d="M0 5h18v13H0V5z"/><path fill="#d21034" d="M18 18h18v13H18V18z"/><g><path fill="#d21034" d="M25.9 11.15l-.66-2.08L27 10.35l1.76-1.28-.67 2.08 1.75 1.28h-2.18L27 14.5l-.67-2.07h-2.18l1.76-1.28z"/></g></g></g></g></svg>
